!!!OTL: Der Wilmen und der Esel (3-48), S. 140
!!!id: P1020
**kern
*clefG2
*k[b-]
*F:
{4f
=1
4f
4f
4f
4a
=2
4g
4e
4f}
=3
{4f
=4
4a
4g
4a
4cc
=5
8b-
8b-
8g
8g
4a}
=6
{4f
=7
4a
4g
4a
4cc
=8
2b-
4a}
=9
{4a
=10
4.g
8g
4g
4b-
=11
4a
4f
4g}
=12
{4a
=13
4cc
4a
4a
4f
=14
2g
4f}
==
*-
!!!minrhy: 8
!!!meters: 4/4 ]  ZZ[5
!!!cut: Der Wilmen und der Esel (3-48), S. 140
!!!reg: Lothringen
!!!trd: PINCK, Louis: Verklingende Weisen, Bd3, Metz 1933
!!!rhy1: X_  X_X_X_X_  X_X_X_
!!!rhy2: X_  X_X_X_X_  XXXXX_
!!!key: P1020  08  F 4/4 ]  ZZ[5
!!!mod: SECHSTONSKALA DUR ?]  AMBITUS[6b
!!!kad: 13321
!!!akz: 1121_3343_3343_2232_5321_
!!!fot: 'a__as'as'as'b__
!!!for: 'a__b__c__d__c__
!!!fok: '-__^a_^a_\__^d_
!! PHRAS[AUFTAKTIG]
!!!fkt: Berufslied
!! LOTH VKL
!! PR[20] 2K[2] 2G[4] 3K[9] 3G[4] 4A[0] 4Ü[0] 5A[7] 6K[0] 6G[0]
!! 7K[0] 7G[0] 8A[0] MEHR[0] SI[27] ABS[45] SR[7] SP[20]
!! ST[15] 2k[16] 2g[31] 3k[2] 3g[4] 4d[0] 4ü[0] 5d[0] 6k[0] 6g[0]
!! 7k[0] 7g[0] 8d[0] mehr[0] si[53] dm[-26] sr[47] sp[7]
!! 1F[8] 2F[65] 3F[25] 4F[0] LF[0] 2P[0] 3P[2] 4P[0] TRI[0] DF[4] AB[48]
!! TF[0] U3K[0] U3[0] U4[0] U4Ü[0] U5[0] U6K[0] U6[0] U7K[0] U7[0]
!! N1[20] N2K[0] N2[26] N3K[20] N3[0] N4[11] N4Ü[0] N5[24] N6K[0] N6[0]
!!!n7k: 0] N7[0] O1[0] O2K[0] O2[0] O3K[0] O3[0] HÖ[0
